images/logos/discordjs.svg

<?xml version="1.0" encoding="UTF-8"?>
<!DOCTYPE svg  PUBLIC '-//W3C//DTD SVG 1.1//EN'  'http://www.w3.org/Graphics/SVG/1.1/DTD/svg11.dtd'>
<svg width="970pt" height="970pt" version="1.1" viewBox="0 0 970 970" xmlns="http://www.w3.org/2000/svg">
<g>
<path d="m10.56 159.44c53.81 0.08 107.63-0.33 161.44 0.18 8.24 1.4 16.67 0.18 24.9 1.8 6.47-0.05 12.67 2.05 19.11 2.42 28.91 4.15 57.22 12.7 83.38 25.73 3.57 2.28 7.5 3.88 11.18 5.94 9.01 5.88 18.2 11.55 26.4 18.55 28.54 22.81 49.98 53.86 63.12 87.81 10.47 26.45 16.77 54.57 19.19 82.9 2.2 8.92 0.81 18.17 2.31 27.18 0.27 9.34 0.14 18.7 0.12 28.05 0.33 8.04-1.52 15.97-1.04 24.02-1.62 11.64-2.52 23.36-4.34 34.98-3.5 17.8-7.24 35.63-13.67 52.64-2.26 7.47-5.97 14.36-8.65 21.67-0.42 1.42-1.47 2.79-3.1 2.79-6.08-0.52-11.74-3.59-17.92-3.28-8.43 0.2-17.09-0.91-25.24 1.84-28.17 5.92-52.19 27.64-61.06 54.98-5.78 16.33-5.46 34.36-0.9 50.96-13.7 5.41-27.47 10.83-41.89 14.07-8.85 2.91-18.2 3.5-27.21 5.71-5.86 0.89-11.76 1.47-17.66 1.99-5.52 1.41-11.25 0.09-16.81 1.11-4.71 0.81-9.49 0.45-14.24 0.56-52.47 0.33-104.94 0.04-157.42 0.08-0.09-181.56-0.05-363.12 0-544.68m97.82 79.94c-0.01 128.52 0 257.04 0 385.55 15.53 0.02 31.07-0.02 46.6 0.03 7.41 0.31 14.66-1.62 22.05-1.92 12.24-0.76 24.07-4.03 35.97-6.73 4.33-2.56 9.65-2.8 13.96-5.49 11.44-4.4 22-10.79 31.88-17.98 6.44-4.88 12-10.72 17.7-16.4 13.23-14.53 22.87-31.99 29.6-50.38 0.45-1.37 1.16-2.62 1.89-3.85 1.49-7.49 4.69-14.52 5.87-22.08 0.59-3.82 1.79-7.49 2.57-11.25 0.82-7.01 2.33-13.95 2.6-21.02 0.3-4.29 1.64-8.45 1.72-12.77 0.19-17.69 0.4-35.4-0.14-53.09-2.12-12.98-2.48-26.28-6-39-0.9-4.01-1.4-8.13-2.78-12.03-2.03-5.14-2.64-10.73-5.02-15.75-7.5-19.02-17.55-37.44-32.22-51.91-16.33-17.28-37.87-29.16-60.64-35.55-7.11-2.89-14.87-3.4-22.24-5.37-8.2-1.42-16.51-2.02-24.79-2.82-19.52-0.46-39.05-0.1-58.58-0.19z"/>
<path d="m757.03 255.26c12.25-1.36 24.7-1.53 36.94-0.05 11.16 0.14 22.13 2.53 33.06 4.57 7 2.14 14.39 2.92 21.16 5.79 16.2 4.7 31.57 11.9 46.37 19.94 18.31 10.6 35.85 22.98 50.44 38.42-7.24 9.75-15.22 18.94-22.74 28.47-9.44 11.46-18.5 23.25-28.35 34.36-15.84-14.16-33.97-25.86-53.51-34.24-5.99-2.14-11.72-5.02-18.02-6.23-12.04-4.15-24.83-5.17-37.4-6.59-17.79-0.83-35.89 1.3-52.66 7.5-12.12 4.76-23.2 12.6-30.67 23.39-9.1 13.4-11.25 30.67-7.74 46.3 2.85 9.69 8.41 18.5 15.85 25.33 13.06 12.35 29.64 20.04 45.96 27.03 3.71 2.33 8.14 2.98 11.98 5.07 13.76 5.49 27.33 11.46 41.04 17.08 6.48 2.29 12.43 5.86 19 7.97 11.34 5.05 22.89 9.64 34.28 14.58 6.64 3.4 13.29 6.77 19.98 10.06 12.14 7.23 23.8 15.28 34.5 24.52 6.52 6.15 12.59 12.79 18.1 19.86 3.62 6.01 8.26 11.4 11.08 17.88 3.31 7.28 7.26 14.38 8.93 22.28 3.63 11.11 5.25 22.77 6.51 34.37 0.11 11.32 0.84 22.74-0.86 33.98-3.2 23.56-11.46 46.62-25.34 66.04-12.13 17.92-28.48 32.73-46.73 44.25-33.97 21.41-74.39 30.66-114.18 31.76-8.69 1.61-17.38-0.63-26.09-0.34-14.11-1.21-28.26-2.71-42.07-6.02-6.73-0.93-13.02-3.53-19.63-4.95-30.23-8.9-58.93-22.93-84.54-41.31-11.3-7.73-21.39-17.1-31.4-26.36-0.23-0.6-0.7-1.81-0.93-2.41 7.94-7.86 14.51-16.93 21.93-25.25 11.5-13.65 23.1-27.2 34.63-40.82 11.57 11.57 24.85 21.27 38.64 30.01 13.58 8.88 28.48 15.48 43.54 21.38 7.64 2.15 15.09 5.03 22.93 6.43 9.12 2.64 18.65 3.12 28.04 4.17 9.29 0.03 18.65 0.51 27.88-0.94 8.8-0.31 17.19-3.04 25.66-5.13 9.35-3.18 18.31-7.65 26.22-13.61 6.63-6.14 13.3-12.65 16.99-21.06 2.85-6.93 5.76-14.1 5.75-21.72 0-8.74 0.83-17.84-2.5-26.15-2.94-9.81-9.26-18.34-16.76-25.19-16.25-13.87-36.3-21.96-55.77-30.17-24.54-10.9-49.37-21.15-73.78-32.35-22.32-9.01-44.35-19.56-63.16-34.81-11.34-9.21-22.11-19.38-30.41-31.47-15.02-20.18-22.97-44.98-25.25-69.85-0.38-14.31-0.93-28.92 2.83-42.87 0.46-5.41 2.82-10.33 4.12-15.53 6.48-18.38 16.19-35.87 29.75-50.01 3.71-4.97 8.64-8.73 13.11-12.95 21.55-18.69 47.82-31.66 75.49-38.3 3.6-1.04 7.22-2.04 10.93-2.62 8.92-1.37 17.78-3.69 26.87-3.49z"/>
<path d="m451.25 259.43c31.85-0.04 63.7-0.09 95.55 0 0.18 110.87 0.02 221.73 0.07 332.6-0.07 19.02 0.19 38.04-0.23 57.06-0.02 4.31-1.02 8.52-1.61 12.78-1.05 13.88-4.44 27.46-8.56 40.73-2.05 7.72-5.74 14.86-8.57 22.31-7.4 15.15-16.25 29.75-27.83 42.09-17.34 19.17-39.45 34.02-63.99 42.21-6.77 2.84-14.08 3.88-21.12 5.83-7.23 1.68-14.65 2.31-21.99 3.33-14.64 0.64-29.39 2.25-44.02 0.29-33.98-3.33-66.78-17.55-92.51-39.99-12.99-10.49-23.29-23.88-32.21-37.89-3.79-8.09-8.76-15.87-10.06-24.87 2.43-0.19 4.9-0.16 7.29-0.71 8.09-2.33 16.65-2.61 24.64-5.4 8.01-1.52 15.65-4.38 23.51-6.47 7.7-2.2 14.68-6.23 22.21-8.85 10.23 20.12 29.18 35.43 50.78 41.75 12.81 4.12 26.65 4.25 39.82 1.93 5.94-1.92 12.05-3.41 17.74-6.06 8-3.96 15.69-8.65 22.28-14.73 16.01-15.01 26.36-36.33 26.75-58.42-0.18-5.08 1.93-9.88 1.85-14.95 0.39-47 0.14-94 0.21-141v-243.57z"/>
<path d="m358.72 589.3c3.56-0.69 7.23-1.3 10.84-0.54 4.97 1.25 10.31 0.26 15.07 2.52 10.4 3.02 20.43 8.24 27.77 16.36 11.79 10.59 18.85 25.92 20.64 41.56 2.43 21.57-6.72 43.73-22.99 57.96-10.78 8.73-23.95 15.31-38.03 15.78-4.7-0.03-9.39 0.07-14.08-0.03-15.32-1.29-29.39-9.08-40.52-19.37-2.51-2.58-4.06-5.95-6.73-8.38-3.81-6.4-8.01-12.84-9.51-20.25-0.58-3.3-2.28-6.38-2.25-9.78-0.01-5.72-0.12-11.45-0.01-17.16 2.17-18.92 12.53-37.04 28.67-47.46 5.65-4.65 12.7-6.89 19.45-9.39 3.77-1.25 7.75-1.49 11.68-1.82z"/>
</g>
</svg>

<?xml version="1.0" encoding="UTF-8" ?>
<!DOCTYPE svg PUBLIC "-//W3C//DTD SVG 1.1//EN" "http://www.w3.org/Graphics/SVG/1.1/DTD/svg11.dtd">
<svg width="970pt" height="970pt" viewBox="0 0 970 970" version="1.1" xmlns="http://www.w3.org/2000/svg">
<g id="#000000ff">
<path fill="#000000" opacity="1.00" d=" M 10.56 159.44 C 64.37 159.52 118.19 159.11 172.00 159.62 C 180.24 161.02 188.67 159.80 196.90 161.42 C 203.37 161.37 209.57 163.47 216.01 163.84 C 244.92 167.99 273.23 176.54 299.39 189.57 C 302.96 191.85 306.89 193.45 310.57 195.51 C 319.58 201.39 328.77 207.06 336.97 214.06 C 365.51 236.87 386.95 267.92 400.09 301.87 C 410.56 328.32 416.86 356.44 419.28 384.77 C 421.48 393.69 420.09 402.94 421.59 411.95 C 421.86 421.29 421.73 430.65 421.71 440.00 C 422.04 448.04 420.19 455.97 420.67 464.02 C 419.05 475.66 418.15 487.38 416.33 499.00 C 412.83 516.80 409.09 534.63 402.66 551.64 C 400.40 559.11 396.69 566.00 394.01 573.31 C 393.59 574.73 392.54 576.10 390.91 576.10 C 384.83 575.58 379.17 572.51 372.99 572.82 C 364.56 573.02 355.90 571.91 347.75 574.66 C 319.58 580.58 295.56 602.30 286.69 629.64 C 280.91 645.97 281.23 664.00 285.79 680.60 C 272.09 686.01 258.32 691.43 243.90 694.67 C 235.05 697.58 225.70 698.17 216.69 700.38 C 210.83 701.27 204.93 701.85 199.03 702.37 C 193.51 703.78 187.78 702.46 182.22 703.48 C 177.51 704.29 172.73 703.93 167.98 704.04 C 115.51 704.37 63.04 704.08 10.56 704.12 C 10.47 522.56 10.51 341.00 10.56 159.44 M 108.38 239.38 C 108.37 367.90 108.38 496.42 108.38 624.93 C 123.91 624.95 139.45 624.91 154.98 624.96 C 162.39 625.27 169.64 623.34 177.03 623.04 C 189.27 622.28 201.10 619.01 213.00 616.31 C 217.33 613.75 222.65 613.51 226.96 610.82 C 238.40 606.42 248.96 600.03 258.84 592.84 C 265.28 587.96 270.84 582.12 276.54 576.44 C 289.77 561.91 299.41 544.45 306.14 526.06 C 306.59 524.69 307.30 523.44 308.03 522.21 C 309.52 514.72 312.72 507.69 313.90 500.13 C 314.49 496.31 315.69 492.64 316.47 488.88 C 317.29 481.87 318.80 474.93 319.07 467.86 C 319.37 463.57 320.71 459.41 320.79 455.09 C 320.98 437.40 321.19 419.69 320.65 402.00 C 318.53 389.02 318.17 375.72 314.65 363.00 C 313.75 358.99 313.25 354.87 311.87 350.97 C 309.84 345.83 309.23 340.24 306.85 335.22 C 299.35 316.20 289.30 297.78 274.63 283.31 C 258.30 266.03 236.76 254.15 213.99 247.76 C 206.88 244.87 199.12 244.36 191.75 242.39 C 183.55 240.97 175.24 240.37 166.96 239.57 C 147.44 239.11 127.91 239.47 108.38 239.38 Z" />
<path fill="#000000" opacity="1.00" d=" M 757.03 255.26 C 769.28 253.90 781.73 253.73 793.97 255.21 C 805.13 255.35 816.10 257.74 827.03 259.78 C 834.03 261.92 841.42 262.70 848.19 265.57 C 864.39 270.27 879.76 277.47 894.56 285.51 C 912.87 296.11 930.41 308.49 945.00 323.93 C 937.76 333.68 929.78 342.87 922.26 352.40 C 912.82 363.86 903.76 375.65 893.91 386.76 C 878.07 372.60 859.94 360.90 840.40 352.52 C 834.41 350.38 828.68 347.50 822.38 346.29 C 810.34 342.14 797.55 341.12 784.98 339.70 C 767.19 338.87 749.09 341.00 732.32 347.20 C 720.20 351.96 709.12 359.80 701.65 370.59 C 692.55 383.99 690.40 401.26 693.91 416.89 C 696.76 426.58 702.32 435.39 709.76 442.22 C 722.82 454.57 739.40 462.26 755.72 469.25 C 759.43 471.58 763.86 472.23 767.70 474.32 C 781.46 479.81 795.03 485.78 808.74 491.40 C 815.22 493.69 821.17 497.26 827.74 499.37 C 839.08 504.42 850.63 509.01 862.02 513.95 C 868.66 517.35 875.31 520.72 882.00 524.01 C 894.14 531.24 905.80 539.29 916.50 548.53 C 923.02 554.68 929.09 561.32 934.60 568.39 C 938.22 574.40 942.86 579.79 945.68 586.27 C 948.99 593.55 952.94 600.65 954.61 608.55 C 958.24 619.66 959.86 631.32 961.12 642.92 C 961.23 654.24 961.96 665.66 960.26 676.90 C 957.06 700.46 948.80 723.52 934.92 742.94 C 922.79 760.86 906.44 775.67 888.19 787.19 C 854.22 808.60 813.80 817.85 774.01 818.95 C 765.32 820.56 756.63 818.32 747.92 818.61 C 733.81 817.40 719.66 815.90 705.85 812.59 C 699.12 811.66 692.83 809.06 686.22 807.64 C 655.99 798.74 627.29 784.71 601.68 766.33 C 590.38 758.60 580.29 749.23 570.28 739.97 C 570.05 739.37 569.58 738.16 569.35 737.56 C 577.29 729.70 583.86 720.63 591.28 712.31 C 602.78 698.66 614.38 685.11 625.91 671.49 C 637.48 683.06 650.76 692.76 664.55 701.50 C 678.13 710.38 693.03 716.98 708.09 722.88 C 715.73 725.03 723.18 727.91 731.02 729.31 C 740.14 731.95 749.67 732.43 759.06 733.48 C 768.35 733.51 777.71 733.99 786.94 732.54 C 795.74 732.23 804.13 729.50 812.60 727.41 C 821.95 724.23 830.91 719.76 838.82 713.80 C 845.45 707.66 852.12 701.15 855.81 692.74 C 858.66 685.81 861.57 678.64 861.56 671.02 C 861.56 662.28 862.39 653.18 859.06 644.87 C 856.12 635.06 849.80 626.53 842.30 619.68 C 826.05 605.81 806.00 597.72 786.53 589.51 C 761.99 578.61 737.16 568.36 712.75 557.16 C 690.43 548.15 668.40 537.60 649.59 522.35 C 638.25 513.14 627.48 502.97 619.18 490.88 C 604.16 470.70 596.21 445.90 593.93 421.03 C 593.55 406.72 593.00 392.11 596.76 378.16 C 597.22 372.75 599.58 367.83 600.88 362.63 C 607.36 344.25 617.07 326.76 630.63 312.62 C 634.34 307.65 639.27 303.89 643.74 299.67 C 665.29 280.98 691.56 268.01 719.23 261.37 C 722.83 260.33 726.45 259.33 730.16 258.75 C 739.08 257.38 747.94 255.06 757.03 255.26 Z" />
<path fill="#000000" opacity="1.00" d=" M 451.25 259.43 C 483.10 259.39 514.95 259.34 546.80 259.43 C 546.98 370.30 546.82 481.16 546.87 592.03 C 546.80 611.05 547.06 630.07 546.64 649.09 C 546.62 653.40 545.62 657.61 545.03 661.87 C 543.98 675.75 540.59 689.33 536.47 702.60 C 534.42 710.32 530.73 717.46 527.90 724.91 C 520.50 740.06 511.65 754.66 500.07 767.00 C 482.73 786.17 460.62 801.02 436.08 809.21 C 429.31 812.05 422.00 813.09 414.96 815.04 C 407.73 816.72 400.31 817.35 392.97 818.37 C 378.33 819.01 363.58 820.62 348.95 818.66 C 314.97 815.33 282.17 801.11 256.44 778.67 C 243.45 768.18 233.15 754.79 224.23 740.78 C 220.44 732.69 215.47 724.91 214.17 715.91 C 216.60 715.72 219.07 715.75 221.46 715.20 C 229.55 712.87 238.11 712.59 246.10 709.80 C 254.11 708.28 261.75 705.42 269.61 703.33 C 277.31 701.13 284.29 697.10 291.82 694.48 C 302.05 714.60 321.00 729.91 342.60 736.23 C 355.41 740.35 369.25 740.48 382.42 738.16 C 388.36 736.24 394.47 734.75 400.16 732.10 C 408.16 728.14 415.85 723.45 422.44 717.37 C 438.45 702.36 448.80 681.04 449.19 658.95 C 449.01 653.87 451.12 649.07 451.04 644.00 C 451.43 597.00 451.18 550.00 451.25 503.00 C 451.25 421.81 451.25 340.62 451.25 259.43 Z" />
<path fill="#000000" opacity="1.00" d=" M 358.72 589.30 C 362.28 588.61 365.95 588.00 369.56 588.76 C 374.53 590.01 379.87 589.02 384.63 591.28 C 395.03 594.30 405.06 599.52 412.40 607.64 C 424.19 618.23 431.25 633.56 433.04 649.20 C 435.47 670.77 426.32 692.93 410.05 707.16 C 399.27 715.89 386.10 722.47 372.02 722.94 C 367.32 722.91 362.63 723.01 357.94 722.91 C 342.62 721.62 328.55 713.83 317.42 703.54 C 314.91 700.96 313.36 697.59 310.69 695.16 C 306.88 688.76 302.68 682.32 301.18 674.91 C 300.60 671.61 298.90 668.53 298.93 665.13 C 298.92 659.41 298.81 653.68 298.92 647.97 C 301.09 629.05 311.45 610.93 327.59 600.51 C 333.24 595.86 340.29 593.62 347.04 591.12 C 350.81 589.87 354.79 589.63 358.72 589.30 Z" />
</g>
</svg>
